X:16410
T:Texedora (CT 268)
R:Trabayu
C:Tradicional
S:Msica Tradicional Asturiana, (C) Tello & Tito. Asturies, 2001.
S:http://pagina.de/MusTradAst <telloytito@asturies.org>
N:Empleaban esta cancin las tejedoras de Grau, acompaando la labor.
N:Hoy esta industria va despareciendo, hasta el punto que es difcil encontrar un telar en dicho pueblo, y por consiguiente, la meloda transcrita perdi su vitalidad, conservndose nicamente en la memoria de alguna vieja ex-tejedora.
O:Grau
A:Asturies
Z:Cancioneru de Torner 268
M:2/4
L:1/8
Q:1/4=72
W:Texedora, texe, texedora,
W:texedora, texe, texedora,
W:txeme la tela
W:del mio camisn,
W:que entre los telares
W:te dar mi amor,
W:texe, texedora
W:del mio corazn.
W:
W:Texedora,
W:ya fai cuatro meses
W:que tienes el filo;
W:texes lo de todos
W:y dexes lo mio.
W:
W:Probe majo, to filu nun sirve;
W:mio telar nun texe tan basto.
W:Como quies que texa
W:yo el to camisn
W:de texido gordo
W:mezcla de estopn
W:Probe, probe majo
W:nun lu texo, non.
W:
W:Probe majo,
W:toma lleva el filo
W:gordu por dems
W:a la texedora
W:de ms acuy.
K:G
GA|:(B3/2 (3c/4B/4A/4 G2)|B{BA}G B{BA}G|A2 A2-|Az BA|(B3/2 (3c/4B/4A/4 G2)|
B{BA}G BB|(c3/2 (3d/4c/4B/4 A2-)|A2 AA|dd ee|dc BA|G4|
B{BA}G B{BA}G|A2 A2|dc BA|G4|B{BA}G B{BA}G|A2 A2|
dc BA|G4-|Gz GG|(c2 B/2c/4B/4A/2B/4A/4)|G4|Gc cc|
({A}B3/2(3c/4B/4A/4 G2)|GG cc|({A}B3/2(3c/4B/4A/4 G3/2A/4G/4)|F4|GG cc|
({A}B3/2(3c/4B/4A/4 G2)|FG AB|(A2- A3/2B/4A/4)|G4-|[1 Gz GA:|[2 Gz3||
